tools/download-figma-icons/icons/solid/existing-customer.svg

<svg width="24" height="24" viewBox="0 0 24 24" fill="none" xmlns="http://www.w3.org/2000/svg">
<path fill-rule="evenodd" clip-rule="evenodd" d="M8.99932 18C8.99932 18.2775 9.01433 18.5483 9.04432 18.8175C9.07433 19.0725 9.11182 19.3275 9.16432 19.5675C9.21683 19.8307 9.28433 20.0775 9.36757 20.325C4.93433 20.28 2.85682 19.5525 2.39932 19.3725C1.83682 19.2383 1.44607 18.7275 1.50607 18.1575L1.84357 14.6925C2.09107 12.135 3.94432 10.0808 6.44182 9.3225C5.25682 8.36325 4.49857 6.89325 4.49857 5.25C4.49857 2.355 6.85432 0 9.74932 0C12.6451 0 14.9993 2.355 14.9993 5.25C14.9993 6.89325 14.2426 8.36325 13.0576 9.3225C13.9418 9.585 14.7451 10.0208 15.4276 10.5833C15.0901 10.6275 14.7601 10.695 14.4368 10.7925C14.1226 10.875 13.8143 10.9882 13.5226 11.1225C10.8676 12.2708 8.99932 14.9257 8.99932 18ZM16.2821 20.0327L19.2829 17.0327C19.5754 16.7402 19.5754 16.2602 19.2829 15.9677C18.9896 15.6752 18.5104 15.6752 18.2179 15.9677L17.8204 16.3652L17.1379 17.0484V17.0552L15.7496 18.4427L15.5779 18.2627H15.5704L14.7821 17.4677C14.4896 17.1752 14.0096 17.1752 13.7171 17.4677C13.4246 17.7602 13.4246 18.2402 13.7171 18.5327L15.2171 20.0327C15.3671 20.1752 15.5546 20.2502 15.7496 20.2502C15.9454 20.2502 16.1329 20.1752 16.2821 20.0327ZM16.4996 12.0002C16.5679 12.0002 16.6421 12.0002 16.7096 12.0077C19.9204 12.1127 22.5004 14.7602 22.5004 18.0002C22.5004 21.3077 19.8079 24.0002 16.4996 24.0002C14.0096 24.0002 11.8721 22.4777 10.9646 20.3102C10.8671 20.0702 10.7771 19.8227 10.7096 19.5677C10.6421 19.3277 10.5896 19.0802 10.5521 18.8177C10.5221 18.5552 10.4996 18.2777 10.4996 18.0002C10.4996 15.2252 12.3904 12.8852 14.9546 12.2027C15.2254 12.1277 15.5104 12.0752 15.7954 12.0452C16.0271 12.0152 16.2604 12.0002 16.4996 12.0002Z" fill="black"/>
</svg>

<svg width="24" height="24" viewBox="0 0 24 24" fill="none" xmlns="http://www.w3.org/2000/svg"><path fill-rule="evenodd" clip-rule="evenodd" d="M9 18a7.349 7.349 0 0 0 .164 1.567c.053.264.12.51.204.758-4.434-.045-6.511-.773-6.969-.953-.562-.134-.953-.645-.893-1.215l.338-3.464c.247-2.558 2.1-4.612 4.598-5.37A5.23 5.23 0 0 1 4.499 5.25 5.256 5.256 0 0 1 9.749 0 5.255 5.255 0 0 1 15 5.25a5.229 5.229 0 0 1-1.941 4.072 6.747 6.747 0 0 1 2.37 1.261 6.216 6.216 0 0 0-.991.21 5.597 5.597 0 0 0-.914.33A7.504 7.504 0 0 0 8.999 18Zm7.282 2.033 3-3a.756.756 0 0 0 0-1.065.756.756 0 0 0-1.064 0l-.398.397-.682.683v.007l-1.388 1.388-.172-.18h-.008l-.788-.795a.756.756 0 0 0-1.065 0 .756.756 0 0 0 0 1.065l1.5 1.5a.765.765 0 0 0 1.065 0ZM16.5 12c.068 0 .142 0 .21.008A6 6 0 0 1 22.5 18c0 3.308-2.692 6-6 6a6.003 6.003 0 0 1-5.79-4.432 5.766 5.766 0 0 1-.158-.75A7.244 7.244 0 0 1 10.5 18a6.006 6.006 0 0 1 4.455-5.797 5.19 5.19 0 0 1 .84-.158c.232-.03.465-.045.705-.045Z" fill="currentColor"/></svg>
